public/icons/eft/profile_pannel/PVP_icon.svg

<svg width="20" height="20" viewBox="0 0 20 20" fill="none" xmlns="http://www.w3.org/2000/svg">
<path fill-rule="evenodd" clip-rule="evenodd" d="M9.74084 5.66212e-05C8.74264 0.0298752 8.5985 0.457713 8.57994 0.486269C8.56151 0.51522 8.50537 0.59459 8.50537 0.59459C8.32686 0.809351 8.47121 0.833621 8.47802 0.834619L8.47927 0.928168C7.90226 1.20086 7.5682 1.49808 7.5682 1.49808C7.54047 1.67086 7.85283 1.71965 7.85283 1.71965C8.25125 1.67344 8.41935 1.80052 8.42458 1.80458C8.40574 1.98826 8.33217 2.02687 8.29034 2.18124C8.24934 2.33286 8.40675 2.35294 8.41215 2.35357C8.53128 2.43327 8.55677 2.59221 8.55757 2.59729C8.55757 2.59729 8.59144 2.64903 8.62966 2.72408C8.59841 2.72254 8.56663 2.72359 8.5352 2.72161C8.52472 2.72285 8.23732 2.75427 8.16729 2.57267H7.73848V2.2871H8.00447V1.75904L6.26064 1.75411V2.12708L6.10154 2.28341V2.45204H6.21092V2.56036H3.26518V2.72285H3.53986V2.77577H3.3758V2.93456H3.26518L3.14585 2.83117H0.0534463V2.93703H0V3.26322H0.0484741V3.38016H3.14585L3.26518 3.26322H3.3758V3.53279H3.4802V3.64111H3.3758V3.69527H3.43297V3.73712H5.16313C5.16313 3.73712 5.34437 4.24399 5.39556 4.27257C5.39407 4.28548 5.36377 4.55992 5.50245 4.6837C5.64377 4.8102 5.65533 4.93973 5.65533 4.93973C5.65547 4.94275 5.6702 5.24769 5.72369 5.28315C5.77815 5.31875 5.87518 5.34531 6.37126 6.11648C6.37126 6.11648 6.91472 6.94117 7.08718 6.95843C7.25577 6.97375 7.52025 6.84904 7.53091 6.84396C7.53091 6.84396 7.75349 6.74951 8.39226 6.35528L8.48051 6.27773C8.5113 6.36467 8.54817 6.4508 8.60356 6.5313C8.67685 6.64613 8.72825 6.80889 8.75395 6.96705C8.05695 6.92644 8.07661 7.22398 8.13125 7.44711C8.24719 7.82625 8.41214 8.21921 8.45316 8.59186C8.50129 9.19405 8.58242 8.91683 8.5961 8.71372C8.76356 9.19849 9.11624 9.10985 9.12932 9.10638C9.12932 9.10638 9.13497 9.15871 9.14423 9.24671C9.15905 9.25297 9.45824 9.38439 9.3692 9.66768C9.3692 9.66768 9.34252 9.86521 9.45124 10.0542C9.45124 10.0542 9.04941 10.6603 8.98887 10.8924C8.98887 10.8924 8.89575 11.2398 8.78254 11.2999C8.67008 11.3601 8.62096 11.8464 8.62096 11.8464C8.61803 11.8585 8.52232 12.251 7.96096 13.7211C7.96096 13.7211 7.7923 13.5826 7.70741 13.6275C7.62557 13.6715 7.64384 13.8054 7.64526 13.8146C7.64526 13.8146 7.64239 13.9324 7.53961 14.0559C7.5392 14.0754 7.52153 14.9713 7.76334 15.6881C7.77516 15.6996 7.96765 15.8923 7.87644 16.0918C7.87553 16.1137 7.81432 17.5686 7.69871 18.0416C7.69812 18.045 7.68797 18.1141 7.77701 18.2213C7.77701 18.2213 7.78824 18.45 7.99701 18.6374C7.99701 18.6374 8.06324 18.6767 7.97464 18.8836C7.97464 18.8836 7.79653 18.8502 7.80684 19.0288C7.79908 19.0264 7.62196 18.9733 7.6465 19.1507C7.6465 19.1507 7.4754 19.1031 7.48244 19.2996C7.48244 19.2996 7.29128 19.2727 7.2612 19.4547L7.09961 19.4522C7.09961 19.4522 6.98544 19.338 6.86097 19.3501C6.86097 19.3501 6.32232 19.5305 6.28177 20H9.53327C9.53174 19.9963 9.39832 19.6745 9.44502 18.9919C9.45094 19 9.54094 19.1187 9.65135 18.9734C9.76251 18.8265 9.79038 18.7825 9.7918 18.7802C9.79409 18.7784 9.83708 18.739 9.82163 18.3038C9.82252 18.2956 9.84257 18.1468 10.0876 17.9358C10.0876 17.9358 9.9576 16.4248 9.7657 15.5662C9.7657 15.5662 9.7545 15.448 9.85892 15.3077C9.96382 15.1676 9.97793 15.173 9.99813 15.0985C9.99813 15.0985 9.85783 14.6547 9.90242 14.5163C9.90811 14.5166 10.2604 14.5371 10.504 14.0017C10.504 14.0017 10.8244 13.8684 10.8408 13.5992C10.8404 13.5923 10.8361 13.4547 11.113 13.1487C11.1207 13.1706 11.4069 13.9892 11.4064 14.6529C11.4055 15.3254 11.9222 15.8998 11.9222 15.8998C11.932 15.9096 12.217 16.1939 12.2864 16.2876C12.3566 16.3827 12.7128 16.9038 12.8183 17.6908C12.8183 17.6908 12.9756 18.3668 13.272 18.6214C13.2882 18.6246 13.6888 18.7064 13.8624 18.9808C13.8643 18.986 13.9059 19.1052 13.7717 19.2688C13.7621 19.2708 13.4114 19.3431 13.2658 19.6209L13.1564 20H15.4198C15.4199 19.9963 15.4242 19.8455 15.2967 19.8449V19.888H15.242V19.7329C15.242 19.7329 15.1999 19.744 15.1911 19.6861V19.4547C15.1911 19.4547 15.195 19.4092 15.242 19.4092V18.678C15.242 18.678 15.1898 18.637 15.1911 18.582C15.1932 18.5268 15.242 18.4884 15.242 18.4884V17.9284H15.0755V17.0716C15.0833 17.0701 15.2213 17.0411 15.2358 16.8919C15.2506 16.7388 15.26 16.621 15.1302 16.5473V16.2063C15.1302 16.2063 14.9694 16.2324 14.9773 16.1546C14.9855 16.0766 14.9773 14.6874 14.9773 14.6874H14.9176V14.643H14.7039V14.6874H14.6442V16.0685L14.5945 16.1189C14.5945 16.1189 14.4739 16.1405 14.3919 15.6906C14.3919 15.6906 14.3867 15.4688 14.2353 15.3496C14.0837 15.2308 14.0057 15.1313 13.9917 15.0776C13.978 15.0234 13.9879 14.8726 13.6598 14.2184C13.6598 14.2184 13.7663 13.9573 13.8413 13.843C13.9156 13.7287 13.9411 13.6296 13.9395 13.4097C13.9399 13.4043 13.9498 13.3064 13.9929 13.2521C13.9923 13.243 13.9694 12.9159 13.9743 12.8865C13.9792 12.8556 13.726 12.5059 13.881 12.4077V12.2514C13.8777 12.248 13.7936 12.1615 13.7592 11.8919C13.7592 11.8919 13.7331 11.4731 13.8239 11.3442V10.8838C13.8239 10.8838 13.8317 10.8224 13.7617 10.7964L13.7692 10.5687C13.779 10.5578 13.9608 10.3575 13.9879 10.3459L13.9904 9.2344C13.9913 9.22769 13.9958 9.15897 13.8239 9.11007H13.5504L13.4535 9.06084V9.05591L13.4597 9.05715C13.4891 8.94406 13.6112 8.93098 13.6175 8.93036H13.8612C13.9193 8.84204 14.0999 8.68946 14.2228 8.58447C14.3434 8.48193 14.432 8.30451 14.4354 8.29767V10.0887H14.4901V10.3041H14.5448V10.2093H14.5957C14.5854 9.79878 14.6541 7.73845 14.6541 7.59605C14.6539 7.45527 14.4926 7.2642 14.4901 7.26124C14.4895 7.24956 14.4727 6.91183 14.4727 6.69255C14.3224 6.48576 14.3223 6.3639 14.3223 6.3639V5.93431C13.7169 4.88469 13.7282 4.07562 13.7282 4.07562C13.7281 3.61594 13.374 3.70166 13.2956 3.67927C13.2819 3.57593 13.2588 3.47049 13.1676 3.36662C12.9217 3.1322 12.8127 2.91541 12.7264 2.78439C12.3961 2.5856 12.1941 2.5082 12.1857 2.50497H11.6835C11.5567 2.50497 11.5356 2.72531 11.5356 2.72531C11.4468 2.725 11.3825 2.6533 11.2423 2.43727C11.0735 2.19696 10.9517 2.18796 10.9291 2.18863C10.9198 2.17089 10.9128 2.1585 10.9154 2.15047C10.9411 2.07612 10.9033 1.84708 10.9017 1.83782C10.8577 1.7055 10.8557 1.56332 10.8557 1.56332C11.0734 1.39072 10.8662 0.805624 10.8607 0.790305C10.5415 -0.0217459 9.74084 5.66212e-05 9.74084 5.66212e-05ZM8.42333 7.15907C8.49408 7.15902 8.70544 7.1364 8.79621 7.48526C8.78528 7.47995 8.61981 7.39781 8.56006 7.27108C8.51477 7.2873 8.47995 7.33439 8.46187 7.37817C8.39145 7.38184 8.31852 7.3784 8.31396 7.37817C8.31242 7.3685 8.28067 7.15907 8.42333 7.15907ZM7.08718 4.70708H7.15679L7.2786 4.84987C7.41161 5.02831 7.52491 5.08224 7.53091 5.08498C7.50324 5.11282 7.40204 5.27191 7.35317 5.45548C7.30416 5.63938 7.27984 5.68813 7.27984 5.68813C6.64111 5.44097 6.64284 5.2183 6.64346 5.20561V4.82279H6.75159V4.71447H6.69566V4.55814L7.08718 4.55322V4.70708ZM13.6735 4.83018C13.6735 4.83018 13.726 4.7852 13.8375 5.11452V5.32377C13.8318 5.32325 13.6735 5.30788 13.6735 5.16375V4.83018ZM6.81001 4.3415H6.8647V4.39689H7.08221V4.44613H6.69566V4.17779H6.81001V4.3415ZM8.56006 3.68296C8.54869 3.6967 8.53652 3.70979 8.52028 3.71866C8.45101 3.78674 8.29132 3.95788 8.24559 4.11132C8.10692 4.08391 8.00776 3.69627 8.00447 3.68296H8.56006ZM7.35441 2.51113H7.08097V2.44712H7.18911V2.39665H7.35441V2.51113Z" fill="#9A8866"/>
</svg>

<svg xmlns="http://www.w3.org/2000/svg" width="40" height="20" fill="none" viewBox="0 0 40 20"><path fill="#9a8866" fill-rule="evenodd" d="M9.74 0c-.997.03-1.142.458-1.16.486-.018.03-.073.107-.075.109-.178.214-.034.239-.027.24l.001.093c-.577.273-.91.57-.91.57-.029.173.284.222.284.222.398-.047.566.08.572.085-.02.183-.093.222-.135.376-.04.152.117.172.122.173.12.08.145.238.146.243 0 0 .033.052.072.127q-.048 0-.095-.002c-.01 0-.298.032-.368-.15h-.429v-.285h.266V1.76l-1.743-.005v.373l-.16.156v.169h.11v.108H3.265v.163h.275v.053h-.164v.159h-.11l-.12-.104H.053v.106H0v.326h.048v.117h3.098l.12-.117h.11v.27h.104v.108h-.104v.054h.057v.042h1.73s.181.507.233.536c-.002.012-.032.287.106.41a.43.43 0 0 1 .153.257c0 .003.015.308.069.343s.151.062.647.833c0 0 .544.825.716.842.169.016.433-.109.444-.114 0 0 .222-.094.861-.489l.089-.077c.03.087.067.173.123.253.073.115.124.278.15.436-.697-.04-.677.257-.623.48.116.38.281.772.322 1.145.048.602.13.325.143.122.168.484.52.396.533.392l.015.14c.015.007.314.138.225.422 0 0-.026.197.082.386 0 0-.402.606-.462.838 0 0-.093.348-.206.408s-.162.546-.162.546c-.003.012-.099.405-.66 1.875 0 0-.169-.138-.254-.094-.081.044-.063.178-.062.188 0 0-.003.117-.105.24 0 .02-.018.916.223 1.633.012.012.205.204.113.404 0 .022-.062 1.477-.177 1.95 0 .003-.011.072.078.18 0 0 .011.228.22.415 0 0 .066.04-.022.247 0 0-.178-.034-.168.145-.008-.003-.185-.056-.16.122 0 0-.172-.048-.165.149 0 0-.19-.027-.22.155l-.162-.003s-.115-.114-.239-.102c0 0-.539.18-.58.65h3.252c-.001-.004-.135-.326-.088-1.008.006.008.096.127.206-.019.112-.146.14-.19.14-.193.003-.002.046-.041.03-.476.002-.008.022-.157.267-.368 0 0-.13-1.511-.322-2.37 0 0-.011-.118.093-.258.105-.14.119-.135.14-.21 0 0-.141-.443-.097-.582.006 0 .358.021.602-.514 0 0 .32-.134.337-.403 0-.007-.005-.144.272-.45.008.022.294.84.293 1.504 0 .672.516 1.247.516 1.247.01.01.295.294.364.388.07.095.427.616.532 1.403 0 0 .158.676.454.93.016.004.417.085.59.36.002.005.044.124-.09.288-.01.002-.36.074-.506.352l-.11.379h2.264c0-.004.004-.154-.123-.155v.043h-.055v-.155s-.042.011-.05-.047v-.231s.003-.046.05-.046v-.731s-.052-.041-.05-.096.05-.094.05-.094v-.56h-.167v-.856c.008-.002.146-.03.16-.18.016-.153.025-.271-.105-.345v-.34s-.16.025-.153-.052c.008-.078 0-1.468 0-1.468h-.06v-.044h-.213v.044h-.06v1.382l-.05.05s-.12.021-.202-.428c0 0-.005-.222-.157-.341-.151-.12-.23-.219-.243-.272-.014-.055-.004-.205-.332-.86 0 0 .106-.26.181-.375s.1-.213.099-.433c0-.006.01-.104.053-.158 0-.009-.024-.336-.019-.366s-.248-.38-.093-.478v-.157c-.003-.003-.087-.09-.122-.36 0 0-.026-.418.065-.547v-.46s.008-.062-.062-.088l.007-.227c.01-.011.192-.212.219-.223l.002-1.112c.001-.006.006-.075-.166-.124h-.274l-.097-.05v-.004l.007.001c.03-.113.151-.126.157-.127h.244c.058-.088.239-.24.362-.346.12-.102.209-.28.212-.286v1.79h.055v.216h.055v-.095h.05c-.01-.41.06-2.47.06-2.613-.001-.14-.162-.332-.165-.335 0-.011-.017-.35-.017-.568-.15-.207-.15-.33-.15-.33v-.429c-.606-1.05-.595-1.858-.595-1.858 0-.46-.354-.374-.432-.397a.54.54 0 0 0-.128-.312c-.246-.235-.355-.452-.442-.583a4 4 0 0 0-.54-.279h-.502c-.127 0-.148.22-.148.22-.09 0-.153-.072-.294-.288-.169-.24-.29-.249-.313-.248q-.016-.026-.014-.039c.026-.074-.012-.303-.013-.312a1 1 0 0 1-.046-.275c.217-.172.01-.757.005-.773C10.54-.022 9.74 0 9.74 0M8.424 7.16c.071-.001.282-.024.373.325-.01-.005-.176-.087-.236-.214-.045.016-.08.063-.098.107-.07.004-.143 0-.148 0-.002-.01-.033-.219.11-.219M7.087 4.706h.07l.122.143a.76.76 0 0 0 .252.235 1.1 1.1 0 0 0-.178.37 2 2 0 0 1-.073.233c-.639-.247-.637-.47-.637-.482v-.383h.109v-.109h-.056v-.156l.391-.005zm6.587.123s.052-.045.164.285v.209c-.006 0-.164-.016-.164-.16zM6.81 4.341h.055v.056h.217v.05h-.386v-.27h.114zm1.75-.658a.14.14 0 0 1-.04.036c-.069.068-.229.239-.274.392-.14-.027-.238-.415-.242-.428zM7.354 2.511h-.273v-.064h.108v-.05h.165zm17.285 7.405q.432 0 .75.24.128.101.356.34.228.226.293.327.191.277.192.657v1.109q0 .378-.192.654-.063.102-.293.33-.228.226-.356.327-.318.239-.75.238H21.94v3.341h-.738V9.916zm-2.699 3.517h2.685a.43.43 0 0 0 .216-.05q.166-.089.357-.265.19-.19.267-.34a.6.6 0 0 0 .026-.215v-1.059q0-.163-.026-.214a1.6 1.6 0 0 0-.28-.353 1.8 1.8 0 0 0-.344-.277.45.45 0 0 0-.216-.038H21.94z" clip-rule="evenodd"/><path fill="#9a8866" d="M30.079 16.697h.178l2.125-6.78h.777l-2.419 7.562h-1.145l-2.43-7.563h.775z"/><path fill="#9a8866" fill-rule="evenodd" d="M37.926 9.916q.432 0 .75.24.127.101.356.34.228.226.293.327.19.277.191.657v1.109q0 .378-.19.654-.065.102-.294.33-.229.226-.356.327-.318.239-.75.238h-2.699v3.341h-.738V9.916zm-2.699 3.517h2.685a.44.44 0 0 0 .216-.05q.166-.089.357-.265.19-.19.267-.34a.6.6 0 0 0 .026-.215v-1.059q0-.163-.026-.214a1.6 1.6 0 0 0-.28-.353 1.8 1.8 0 0 0-.344-.277.45.45 0 0 0-.216-.038h-2.685zM22.42 1.093q.242 0 .426.133.07.05.184.164.116.113.153.17a.64.64 0 0 1 .108.36v.567a.63.63 0 0 1-.108.352 1.2 1.2 0 0 1-.159.17q-.114.113-.184.164a.7.7 0 0 1-.42.126h-1.273v1.575h-.522v-3.78zm-1.273 1.715h1.267q.076 0 .177-.083a1 1 0 0 0 .16-.17q.018-.025.018-.082v-.548a.2.2 0 0 0-.012-.069.43.43 0 0 0-.133-.165q-.115-.1-.18-.107h-1.297z" clip-rule="evenodd"/><path fill="#9a8866" d="M26.52 1.584h-1.822v1.154h1.72v.492h-1.72v1.153h1.821v.491h-2.343v-3.78h2.343zm2.83 1.16h.075v-1.65h.522v1.65h.076l1.47-1.65h.688l-1.718 1.89 1.724 1.89H31.5L30.023 3.23h-.076v1.644h-.522V3.23h-.076l-1.476 1.644h-.688l1.724-1.89-1.717-1.89h.687zm4.049 1.268 1.59-2.919h.619v3.781h-.516V1.988l-1.604 2.886h-.605v-3.78h.516zm4.927-.858 1.025-2.06H40v3.78h-.51V1.87l-.999 2.028h-.343l-.987-2.028v3.005h-.514v-3.78h.66z"/></svg>
